**kern	**kern	**dynam
*part1	*part1	*part1
*staff2	*staff1	*
*I"Piano	*	*
*clefF4	*clefG2	*
*k[b-]	*k[b-]	*
=1	=1	=1
*	*^	*
8AAA	8aa)	2.a	f
8r	4rff	.	.
*	*	*^	*
(8AA 8G	.	.	(8A/ 8c#X	pp
8AAL 8G	4rff	.	8A/L 8e	.
8AAJ) 8F	.	.	8A/J) 8d	.
8r	([8a	.	8rD	f
*	*	*v	*v	*
=	=	=	=
8AAA	8aa)	2.a]	.
8r	4rff	.	.
*	*	*^	*
8AA 8F	.	.	(8A/ 8d	pp
8AAL 8A	4rff	.	8c#X/L 8f	.
8AAJ 8G	.	.	8c#/J) 8e	.
8r	([8a	.	8rD	f
*	*	*v	*v	*
=	=	=	=
8AAA	8aa)	2.a]	.
8r	4rff	.	.
*	*	*^	*
8AA 8G	.	.	8A/ 8c#X	pp
4AA 4F	4rff	.	8A/L 8d	<
.	.	.	8d/	.
8AA 8F 8A	8raa	.	8f/J	[ f
*	*	*v	*v	*
=	=	=	=
!	!LO:TX:b:i:t=rall.	!	!
4BB- 4E 4G#X	4g#X	4d	.
*	*v	*v	*
8B- 8d 8e 8g#X	8ee	.
*	*^	*
4A	4a;	4c#X 4e	.
*	*v	*v	*
!	!LO:TX:b:i:t=a tempo	!
8r	((8a	ppp
=	=	=
4r	4a;)) 4aa	.
8r	(8a	pp
4r	4a;) 4aa	.
8r	8ff	p
*clefG2	*	*
=	=	=
.	16qqff/LL	<
.	16qqgg/JJ	.
4g#X 4bn 4dd	(8ffL	.
.	8ee	.
8gn 8b-X 8cc#X	8eeeJ)	.
.	16qqddd/LL	[ >
.	16qqeee/JJ	.
4f 4a 4dd	(16dddLL	.
.	16ccc	.
.	16aa	.
.	16ff	.
*clefF4	*	*
*^	*	*
(8c	8c	16dd	.
.	.	16ccJJ)	.
*v	*v	*	*
=||	=||	=||
*M3/8	*M3/8	*
*^	*	*
4Bn)	4GG 4B	8bnL 8ff 8aa	] p
.	.	8ddT	.
(8B-X	(8C 8B-	(((8eJ 8g 8ee	.
*v	*v	*	*
=	=	=
4.FF)) 4.C 4.A	4.f;))) 4.a 4.cc 4.ff	.
==	==	==
*-	*-	*-
!!!system-decoration: {(s1,s2)}
